!!!!SEGMENT: pl-wtm--r-1544--002_stefani-jozef--msza-no-9-gloria.krn
!!!id: 18xx:1794
!!!COM: Stefani, Józef
!!!COM-rism: pe30024097
!!!CDT: 1800/04/16-1876/03/19
!!!CNT: Polish
!!!OTL: Msza No 9 – Gloria
!!!PDT: 1846
!!!SMS-siglum: PL-Wtm
!!!SMS-shelfmark: R 1544
!!!NIFC-rismID: 1001120493
!!!URL-scan: http://repozytorium.nifc.pl/skany/pl-wtm-nut--r1544
!!!ONB-nifc: UWAGA: części Mszy: 1. Kyrie, 2. Gloria, 3. Graduale, 4. Credo, 5. Offertorium, 6. Sanctus, 7. Benedictus, 8. Agnus Dei, 9. Dona nobis
!!!SMS-variant:
!!!SMS-altvar:
!!!OMD: moderato
**kern	**dynam	**kern	**dynam	**kern	**text	**dynam	**kern	**dynam	**kern	**kern	**text	**dynam	**kern	**dynam	**kern	**dynam	**kern	**dynam	**kern	**dynam	**kern	**dynam	**kern	**kern	**dynam	**kern	**dynam	**kern	**dynam
*part15	*part15	*part14	*part14	*part13	*part13	*part13	*part12	*part12	*part11	*part10	*part10	*part10	*part9	*part9	*part8	*part8	*part7	*part7	*part6	*part6	*part5	*part5	*part4	*part3	*part3	*part2	*part2	*part1	*part1
*staff15	*	*staff14	*	*staff13	*staff13	*	*staff12	*	*staff11	*staff10	*staff10	*	*staff9	*	*staff8	*	*staff7	*	*staff6	*	*staff5	*	*staff4	*staff3	*	*staff2	*	*staff1	*
*stria1	*	*	*	*	*	*	*	*	*	*	*	*	*	*	*	*	*	*	*	*	*	*	*	*	*	*	*	*	*
*	*	*	*	*group2	*	*	*group2	*	*group2	*group2	*	*	*	*	*	*	*	*	*	*	*group1	*	*group1	*group1	*	*group1	*	*group1	*
*I"Tympani	*	*I"Basſi	*	*I"Basſo	*	*	*I"Tenore	*	*I"Soprano 2o	*I"Soprano 1o	*	*	*I"Viole	*	*	*	*I"Violini	*	*I"Trombe in C	*	*I"Fagotti	*	*I"Corni in C	*I"Clarinetti in C	*	*I"Oboe	*	*I"Flauto	*
*clefF1	*	*clefF4	*	*clefF4	*	*	*clefC4	*	*clefG2	*clefG2	*	*	*clefC3	*	*clefG2	*	*clefG2	*	*clefG2	*	*clefF4	*	*clefG2	*clefG2	*	*clefG2	*	*clefG2	*
*	*	*	*	*	*	*	*	*	*	*	*	*	*	*	*	*	*	*	*	*	*	*	*Trd0c0	*	*	*	*	*	*
*k[]	*	*k[]	*	*k[]	*	*	*k[]	*	*k[]	*k[]	*	*	*k[]	*	*k[]	*	*k[]	*	*k[]	*	*k[]	*	*k[]	*k[]	*	*k[]	*	*k[]	*
*M4/4	*	*M4/4	*	*M4/4	*	*	*M4/4	*	*M4/4	*M4/4	*	*	*M4/4	*	*M4/4	*	*M4/4	*	*M4/4	*	*M4/4	*	*M4/4	*M4/4	*	*M4/4	*	*M4/4	*
*met(c)	*	*met(c)	*	*met(c)	*	*	*met(c)	*	*met(c)	*met(c)	*	*	*met(c)	*	*met(c)	*	*met(c)	*	*met(c)	*	*met(c)	*	*met(c)	*met(c)	*	*met(c)	*	*met(c)	*
*all\right	*	*all\right	*	*all\right	*	*	*all\right	*	*all\right	*all\right	*	*	*all\right	*	*all\right	*	*all\right	*	*all\right	*	*all\right	*	*all\right	*all\right	*	*all\right	*	*all\right	*
=1	=1	=1	=1	=1	=1	=1	=1	=1	=1	=1	=1	=1	=1	=1	=1	=1	=1	=1	=1	=1	=1	=1	=1	=1	=1	=1	=1	=1	=1
!	!	!	!	!	!	!	!	!	!	!	!	!	!	!	!	!	!	!	!LO:TX:a:t=Solo	!	!	!	!	!	!	!	!	!LO:TX:t=P:problem:oznaczenie tempa dopisane ołówkiem	!
1r	.	1r	.	1r	.	.	1r	.	1r	1r	.	.	1r	.	1r	.	1r	.	4g/	.	1r	.	1r	1r	.	1r	.	1r	.
.	.	.	.	.	.	.	.	.	.	.	.	.	.	.	.	.	.	.	8r	.	.	.	.	.	.	.	.	.	.
.	.	.	.	.	.	.	.	.	.	.	.	.	.	.	.	.	.	.	16g/LL	.	.	.	.	.	.	.	.	.	.
.	.	.	.	.	.	.	.	.	.	.	.	.	.	.	.	.	.	.	16g/JJ	.	.	.	.	.	.	.	.	.	.
.	.	.	.	.	.	.	.	.	.	.	.	.	.	.	.	.	.	.	4g/	.	.	.	.	.	.	.	.	.	.
.	.	.	.	.	.	.	.	.	.	.	.	.	.	.	.	.	.	.	8r	.	.	.	.	.	.	.	.	.	.
.	.	.	.	.	.	.	.	.	.	.	.	.	.	.	.	.	.	.	16g/LL	.	.	.	.	.	.	.	.	.	.
.	.	.	.	.	.	.	.	.	.	.	.	.	.	.	.	.	.	.	16g/JJ	.	.	.	.	.	.	.	.	.	.
=2	=2	=2	=2	=2	=2	=2	=2	=2	=2	=2	=2	=2	=2	=2	=2	=2	=2	=2	=2	=2	=2	=2	=2	=2	=2	=2	=2	=2	=2
1r	.	2r	.	2r	.	.	2r	.	2r	2r	.	.	2r	.	2r	.	2r	.	4g/	.	2r	.	2r	2r	.	1r	.	1r	.
.	.	.	.	.	.	.	.	.	.	.	.	.	.	.	.	.	.	.	8r	.	.	.	.	.	.	.	.	.	.
.	.	.	.	.	.	.	.	.	.	.	.	.	.	.	.	.	.	.	16g/LL	.	.	.	.	.	.	.	.	.	.
.	.	.	.	.	.	.	.	.	.	.	.	.	.	.	.	.	.	.	16g/JJ	.	.	.	.	.	.	.	.	.	.
!	!	!	!	!	!	!	!	!	!	!	!	!LO:DY:b:t=p.	!	!	!	!	!	!	!	!	!	!	!	!	!	!	!	!	!
.	.	4r	.	4r	.	.	4r	.	4r	4r	.	p	4r	.	4r	.	4r	.	4g/	.	4r	.	4r	4r	.	.	.	.	.
!	!	!	!	!	!	!	!	!LO:DY:rj	!	!	!	!	!	!	!	!	!	!	!	!	!	!	!	!	!	!	!	!	!
.	.	[4G\	.	[4G\	.	.	[4G/	p	[4g/	[4g/	Chwa-	.	[4G/	.	[4g/	.	[4g/	p	4g/	.	[4G\	.	4ryy	[4g/	.	.	.	.	.
=3	=3	=3	=3	=3	=3	=3	=3	=3	=3	=3	=3	=3	=3	=3	=3	=3	=3	=3	=3	=3	=3	=3	=3	=3	=3	=3	=3	=3	=3
!	!	!	!	!	!	!	!	!	!	!	!	!	!	!	!	!	!	!	!	!	!	!LO:DY:rj:a	!	!	!LO:DY:rj:a	!	!	!	!
1r	.	4G\]	.	4G\]	.	.	4G/]	.	4g/]	4g/]	.	.	4G/]	.	4g/]	.	4g/]	.	1r	.	4G\]	p	1r	4g/]	p	1r	.	1r	.
.	.	(8A\L	.	(8A\L	.	.	(8A\L	.	(8a/L	(8a/L	-łę	.	(8A/L	.	(8a/L	.	(8a/L	.	.	.	(8A\L	.	.	(8a/L	.	.	.	.	.
.	.	8B\J)	.	8B\J)	.	.	8B\J)	.	8b/J)	8b/J)	.	.	8B/J)	.	8b/J)	.	8b/J)	.	.	.	8B\J)	.	.	8b/J)	.	.	.	.	.
.	.	4c\	.	4c\	.	.	4c\	.	4cc/	4cc/	Pa-	.	4c/	.	4cc/	.	4cc/	.	.	.	4c\	.	.	4cc/	.	.	.	.	.
.	.	(8B\L	.	(8B\L	.	.	(8B\L	.	(8b/L	(8b/L	-na	.	(8B/L	.	8b/L	.	(8b/L	.	.	.	(8B\L	.	.	(8b/L	.	.	.	.	.
.	.	8A\J)	.	8A\J)	.	.	8A\J)	.	8a/J)	8a/J)	.	.	8A/J)	.	8a/J	.	8a/J)	.	.	.	8A\J)	.	.	8a/J)	.	.	.	.	.
=4	=4	=4	=4	=4	=4	=4	=4	=4	=4	=4	=4	=4	=4	=4	=4	=4	=4	=4	=4	=4	=4	=4	=4	=4	=4	=4	=4	=4	=4
1r	.	4.G\	.	4.G\	.	.	4.G/	.	4.g/	4.g/	wdzię-	.	4.G/	.	4.g/	.	4.g/	.	1r	.	4.G\	.	1r	4.g/	.	1r	.	1r	.
.	.	8F\	.	8F\	.	.	8F/	.	8f/	8f/	-cznem	.	8F/	.	8f/	.	8f/	.	.	.	8F\	.	.	8f/	.	.	.	.	.
.	.	4E\	.	4E\	.	.	4E/	.	4e/	4e/	pie-	.	4E/	.	4e/	.	4e/	.	.	.	4E\	.	.	4e/	.	.	.	.	.
.	.	4D\	.	4D\	.	.	4D/	.	4d/	4d/	-niem	.	4D/	.	4d/	.	4d/	.	.	.	4D\	.	.	4d/	.	.	.	.	.
=5	=5	=5	=5	=5	=5	=5	=5	=5	=5	=5	=5	=5	=5	=5	=5	=5	=5	=5	=5	=5	=5	=5	=5	=5	=5	=5	=5	=5	=5
*	*	*	*	*	*	*	*	*	*	*	*	*	*	*	*	*	*	*	*^	*	*	*	*^	*	*	*	*	*	*
!LO:SIC:s=4C/	!	!	!	!	!	!	!	!	!	!	!	!	!	!	!	!	!	!	!	!	!	!	!	!	!	!	!LO:HP:a	!	!	!	!LO:HP:a
4Re/	.	4C/	.	4C/	.	.	4G/	.	4c/	4e/	lu-	.	4c\	.	4c/	.	4e/	<	4cc 4e/	4ryy	.	4c 4C\	.	4cc 4e/	2ryy	4e 4c/	<	4cc\	.	4ee\	<
!LO:SIC:s=8.GG\L	!	!	!	!	!	!	!	!	!	!	!	!	!	!	!	!	!	!	!	!	!	!	!	!	!	!	!	!	!	!	!
8.Re\L	.	8.BB/L	<	8.BB/	.	.	8.G/	.	8.d/	8.g/	-dy	.	8.B\L	.	8.d/L	.	8.g/L	.	8.g/L	8.g\L	.	8.BL 8.BB\	.	8.ddL 8.g/	.	8.gL 8.d/	.	8.dd\L	.	8.gg\L	.
!LO:SIC:s=16GG\Jk	!	!	!	!	!	!	!	!	!	!	!	!	!	!	!	!	!	!	!	!	!	!	!	!	!	!	!	!	!	!	!
16Re\Jk	.	16BB/Jk	.	16BB/	.	.	16G/	.	16d/	16g/	a-	.	16B\Jk	.	16d/Jk	.	16g/Jk	.	16g/Jk	16g\Jk	.	16BJk 16BB\	.	16ddJk 16g/	.	16gJk 16d/	.	16dd\Jk	.	16gg\Jk	.
!LO:SIC:s=4C/	!	!	!	!	!	!	!	!	!	!	!	!	!	!	!	!	!	!	!	!	!	!	!	!	!	!	!	!	!	!	!
4Re/	.	4AA/	.	4AA/	.	.	4A/	.	4e/	4cc\	-nio-	.	4A/	.	4e/	.	4cc\	.	4cc 4e/	2ryy	.	4A 4AA\	.	4ee/	4cc\	4cc 4e/	.	4ee\	.	4ccc\	.
!LO:SIC:s=8.GG\L	!	!LO:TX:t=P:problem:mixed beam	!	!	!	!	!	!	!	!	!	!	!	!	!	!	!	!	!	!	!	!	!	!	!	!	!	!	!	!	!
8.Re\L	.	8.GG/L	.	8.GG/	.	.	8.B\	.	8.g/	8.dd\	-ły	.	8.G/L	.	8.g/L	.	8.dd\L	[	8.ddL 8.g/	.	.	8.GL 8.GG\	.	8.ddL 8.g/	4ryy	8.ddL 8.g/	[	8.gg\L	.	8.ddd\L	.
!LO:SIC:s=16GG\Jk	!	!	!	!	!	!	!	!	!	!	!	!	!	!	!	!	!	!	!	!	!	!	!	!	!	!	!	!	!	!	!
16Re\Jk	.	16G\Jk	[	16G\	.	.	16B\	.	16g/	16dd\	raz	.	16G/Jk	.	16g/Jk	.	16dd\Jk	.	16ddJk 16g/	.	.	16GJk 16GG\	.	16ddJk 16g/	.	16ddJk 16g/	.	16gg\Jk	.	16ddd\Jk	[
!!LO:PB:g=original
=6	=6	=6	=6	=6	=6	=6	=6	=6	=6	=6	=6	=6	=6	=6	=6	=6	=6	=6	=6	=6	=6	=6	=6	=6	=6	=6	=6	=6	=6	=6	=6
*	*	*	*	*	*	*	*	*	*	*	*	*	*	*	*	*	*	*	*	*	*	*	*	*	*	*^	*	*	*	*	*
*	*	*	*	*	*	*	*2\right	*	*	*2\right	*	*	*	*	*	*	*	*	*2\right	*	*	*	*	*2\right	*	*2\right	*	*	*2\right	*	*2\right	*
!	!	!	!	!	!	!	!	!	!	!	!	!	!	!	!	!	!	!	!	!	!	!	!	!	!	!	!	!	!	!	!	!LO:HP:a
!LO:SIC:s=2CT/	!	!	!LO:DY:rj:a	!	!	!	!	!	!	!	!	!LO:DY:rj	!	!	!	!	!	!LO:DY:rj:a	!	!	!	!	!	!	!	!	!	!	!	!	!	!LO:DY:rj:a
2Re/	.	4.C\	f	(4.C\	.	.	2c\	.	2g/	2ee\	nie-	f >	(4.c\	.	16cc/LL	.	16ee\LL	f	2ee/	2cc\	.	(4.C\	.	2ee/	2cc\	2ee/	2cc\	.	(2ccc\	.	2eee\	f >
.	.	.	.	.	.	.	.	.	.	.	.	.	.	.	16g/	.	16cc\	.	.	.	.	.	.	.	.	.	.	.	.	.	.	.
.	.	.	.	.	.	.	.	.	.	.	.	.	.	.	16e/	.	16g\	.	.	.	.	.	.	.	.	.	.	.	.	.	.	.
.	.	.	.	.	.	.	.	.	.	.	.	.	.	.	16g/JJ	.	16cc\JJ	.	.	.	.	.	.	.	.	.	.	.	.	.	.	.
.	.	.	.	.	.	.	.	.	.	.	.	.	.	.	16cc/LL	.	16ee\LL	.	.	.	.	.	.	.	.	.	.	.	.	.	.	.
.	.	.	.	.	.	.	.	.	.	.	.	.	.	.	16g/	.	16cc\	.	.	.	.	.	.	.	.	.	.	.	.	.	.	.
.	.	8E\	.	8E\)	.	.	.	.	.	.	.	]	8e\)	.	16ee/	.	16gg\	.	.	.	.	8E\)	.	.	.	.	.	.	.	.	.	.
.	.	.	.	.	.	.	.	.	.	.	.	.	.	.	16cc/JJ	.	16ee\JJ	.	.	.	.	.	.	.	.	.	.	.	.	.	.	.
!LO:SIC:s=4GG\	!	!	!	!	!	!	!	!	!	!	!	!	!	!	!	!	!	!	!	!	!	!	!	!	!	!	!	!	!	!	!	!
4Re\	.	4G\	.	4G\	.	.	4B\	.	4g/	4dd\	-ście	.	4g\	.	4b/	.	4dd\	.	4dd/	4g/	.	4G\	.	4dd 4g/	4ryy	4dd/	4b\	.	4bb\)	.	4ddd\	]
!	!	!	!	!	!	!	!	!	!	!LO:TX:a:i:t=dolce	!	!	!	!	!	!	!	!	!	!	!	!	!	!	!	!	!	!	!	!	!	!
4r	.	8.G\L	.	8.G\	.	.	8.B\	.	8.g/	8.dd\	O-	.	4r	.	4r	.	4r	.	4r	4ryy	.	8.G\L	.	4r	4ryy	8.dd/L	8.b\L	.	8.bb\L	.	8.ddd|\L	.
.	.	16G\Jk	.	16G\	.	.	16A#X\	.	16g/	16cc#X\	-ży-	.	.	.	.	.	.	.	.	.	.	16G\Jk	.	.	.	16cc#X/Jk	16a#X\Jk	.	16aa#X\Jk	.	16ccc#X|\Jk	.
*	*	*	*	*	*	*	*	*	*	*	*	*	*	*	*	*	*	*	*v	*v	*	*	*	*v	*v	*	*	*	*	*	*	*
=7	=7	=7	=7	=7	=7	=7	=7	=7	=7	=7	=7	=7	=7	=7	=7	=7	=7	=7	=7	=7	=7	=7	=7	=7	=7	=7	=7	=7	=7	=7
*	*	*2\right	*	*2\right	*	*	*	*	*	*	*	*	*2\right	*	*	*	*	*	*	*	*2\right	*	*	*	*	*	*	*	*	*
1r	.	2.G\	.	2G\	.	.	2B\	.	2g/	2dd\	-wie-	.	[2g\	.	16r	.	16r	.	1r	.	2.G\	.	2.dd 2.g/	2dd/	2b\	.	(2bb\	.	(2ddd\	.
.	.	.	.	.	.	.	.	.	.	.	.	.	.	.	(16g/LL	.	(16b\LL	.	.	.	.	.	.	.	.	.	.	.	.	.
.	.	.	.	.	.	.	.	.	.	.	.	.	.	.	16d/	.	16g\	.	.	.	.	.	.	.	.	.	.	.	.	.
.	.	.	.	.	.	.	.	.	.	.	.	.	.	.	16g/JJ	.	16b\JJ	.	.	.	.	.	.	.	.	.	.	.	.	.
.	.	.	.	.	.	.	.	.	.	.	.	.	.	.	16b/LL	.	16dd\LL	.	.	.	.	.	.	.	.	.	.	.	.	.
.	.	.	.	.	.	.	.	.	.	.	.	.	.	.	16g/	.	16b\	.	.	.	.	.	.	.	.	.	.	.	.	.
.	.	.	.	.	.	.	.	.	.	.	.	.	.	.	16dd/	.	16gg\	.	.	.	.	.	.	.	.	.	.	.	.	.
.	.	.	.	.	.	.	.	.	.	.	.	.	.	.	16b/JJ)	.	16dd\JJ	.	.	.	.	.	.	.	.	.	.	.	.	.
.	.	.	.	4G\	.	.	4d\	.	4g/	4b\	-ni	.	4g\]	.	4g/	.	4b\)	.	.	.	.	.	.	4b/	4g\	.	4gg\)	.	4bb\)	.
.	.	8.A\L	.	8.A\	.	.	8.c\	.	8.e/	8.cc\	Je-	.	8.a\L	.	4r	.	4r	.	.	.	8.A\L	.	4r	8.cc/L	8.e\L	.	8.ee\L	.	8.ccc|\L	.
.	.	16F#X\Jk	.	16F#X\	.	.	16A\	.	16a/	16dd\	-go	.	16f#X\Jk	.	.	.	.	.	.	.	16F#X\Jk	.	.	16dd/Jk	16a\Jk	.	16aa\Jk	.	16ddd|\Jk	.
=8	=8	=8	=8	=8	=8	=8	=8	=8	=8	=8	=8	=8	=8	=8	=8	=8	=8	=8	=8	=8	=8	=8	=8	=8	=8	=8	=8	=8	=8	=8
*	*	*	*	*	*	*	*	*	*	*	*	*	*	*	*	*	*	*	*^	*	*	*	*^	*	*	*	*	*	*	*
!	!	!LO:N:vis=2	!	!	!	!	!	!	!	!	!	!	!	!	!	!	!	!	!	!	!	!	!	!	!	!	!	!	!	!	!	!
1r	.	4G\	.	2G\	.	.	2d\	.	2g/	2b\	thnie-	.	8r	.	8r	.	8r	.	2b/	2g\	.	2G\	.	2dd 2g/	2ryy	2b/	2g\	.	2gg\	.	2bb\	.
.	.	.	.	.	.	.	.	.	.	.	.	.	8g\L	.	8g/L	.	8bL 8d/	.	.	.	.	.	.	.	.	.	.	.	.	.	.	.
.	.	4r	.	.	.	.	.	.	.	.	.	.	8g\	.	8g/	.	8b 8d/	.	.	.	.	.	.	.	.	.	.	.	.	.	.	.
.	.	.	.	.	.	.	.	.	.	.	.	.	8g\J	.	8g/J	.	8bJ 8d/	.	.	.	.	.	.	.	.	.	.	.	.	.	.	.
.	.	4D\	.	2D\	.	.	2d\	.	2f#X/	2a\	-niem	.	8r	.	8r	.	8r	.	2a/	2f#X\	.	2D\	.	2dd/	2dd\	2dd/	2f#X\	.	2ff#X\	.	2aa\	.
.	.	.	.	.	.	.	.	.	.	.	.	.	8d\L	.	8f#X/L	.	8aL 8d/	.	.	.	.	.	.	.	.	.	.	.	.	.	.	.
.	.	4r	.	.	.	.	.	.	.	.	.	.	8d\	.	8f#/	.	8a 8d/	.	.	.	.	.	.	.	.	.	.	.	.	.	.	.
.	.	.	.	.	.	.	.	.	.	.	.	.	8d\J	.	8f#/J	.	8aJ 8d/	.	.	.	.	.	.	.	.	.	.	.	.	.	.	.
*	*	*	*	*	*	*	*	*	*	*	*	*	*	*	*	*	*	*	*v	*v	*	*	*	*	*	*	*	*	*	*	*	*
=9	=9	=9	=9	=9	=9	=9	=9	=9	=9	=9	=9	=9	=9	=9	=9	=9	=9	=9	=9	=9	=9	=9	=9	=9	=9	=9	=9	=9	=9	=9	=9
2r	.	8E\	.	4E\	.	.	4B\	.	4e/	4g/	W_nim	.	8r	.	8r	.	8r	.	4g 4e/	.	4E\	.	4ee/	4ee\	4b/	4g\	.	4ee\	.	4gg\	.
!	!	!	!LO:HP:a	!	!	!	!	!	!	!	!	!	!	!	!	!	!	!LO:HP:a	!	!	!	!	!	!	!	!	!	!	!	!	!LO:HP:a
.	.	8r	<	.	.	.	.	.	.	.	.	.	8B/	.	8e/	.	8g/	<	.	.	.	.	.	.	.	.	.	.	.	.	<
.	.	8D\	.	8.D\	.	.	8.d\	.	8.f#X/	8.a/	i	<	8r	.	8r	.	8r	.	8.aL 8.f#X/	.	8.D\L	.	8.dd/L	8.dd\L	8.ddL 8.f#X/	4ryy	.	8.ff#X\L	.	8.aa\L	.
.	.	8r	.	.	.	.	.	.	.	.	.	.	8d\	.	8f#X/	.	8a/	.	.	.	.	.	.	.	.	.	.	.	.	.	.
.	.	.	.	16D\	.	.	16d\	.	16f#/	16a/	dla	.	.	.	.	.	.	.	16aJk 16f#/	.	16D\Jk	.	16dd/Jk	16dd\Jk	16ddJk 16f#/	.	.	16ff#\Jk	.	16aa\Jk	.
4r	.	8G\	.	4G\	.	.	4d\	.	4g/	4b\	nie-	.	8r	.	8r	.	8r	.	4b 4g/	.	4G\	.	4dd/	4dd\	4dd 4g/	2ryy	.	4gg\	.	4bb\	.
.	.	8r	.	.	.	.	.	.	.	.	.	.	8d\	.	8g/	.	8b/	.	.	.	.	.	.	.	.	.	.	.	.	.	.
!LO:SIC:s=8.GG\L	!	!	!	!	!	!	!	!	!	!	!	!	!	!	!	!	!	!	!	!	!	!	!	!	!	!	!	!	!	!	!
8.Re\L	.	8BB/	.	8.BB/	.	.	8.d\	.	8.g/	8.dd\	-go	.	8r	.	8r	.	8r	.	8.ddL 8.g/	.	8.BB/L	.	8.dd/L	8.dd\L	8.ddL 8.g/	.	.	8.gg\L	.	8.ddd\L	.
.	.	8r	[	.	.	.	.	.	.	.	.	.	8d\	.	8g/	.	8dd/	.	.	.	.	.	.	.	.	.	.	.	.	.	.
!LO:SIC:s=16GG\Jk	!	!	!	!	!	!	!	!	!	!	!	!	!	!	!	!	!	!	!	!	!	!	!	!	!	!	!	!	!	!	!
16Re\Jk	.	.	.	16BB/	.	.	16d\	.	16g/	16dd\	ie-	[[	.	.	.	.	.	[[	16ddJk 16g/	.	16BB/Jk	.	16dd/Jk	16dd\Jk	16ddJk 16g/	.	.	16gg\Jk	.	16ddd\Jk	[[
=10	=10	=10	=10	=10	=10	=10	=10	=10	=10	=10	=10	=10	=10	=10	=10	=10	=10	=10	=10	=10	=10	=10	=10	=10	=10	=10	=10	=10	=10	=10	=10
*	*	*	*	*	*	*	*	*	*	*	*	*	*	*	*	*	*	*	*^	*	*	*	*	*	*	*	*	*	*	*	*
!LO:SIC:s=8C/	!	!	!LO:DY:rj:a	!	!	!	!	!	!	!	!	!LO:DY:rj	!	!	!	!	!	!LO:DY:a	!	!	!	!	!	!	!	!	!	!	!	!	!	!LO:DY:rj:a
8Re/	.	8AA/	f	(4AA/	.	.	(4e\	.	(4a/	(4cc\	-ste-	f	8r	.	8r	.	8r	f	4cc/	4a\	.	(4AA/	.	4ee/	4cc\	2cc/	2a\	.	(4aa\	.	(4ccc\	f
8r	.	8r	.	.	.	.	.	.	.	.	.	>	8e\	.	8a/	.	8cc/	.	.	.	.	.	.	.	.	.	.	.	.	.	.	.
!LO:SIC:s=8C/	!	!	!	!	!	!	!	!	!	!	!	!	!	!	!	!	!	!	!	!	!	!	!	!	!	!	!	!	!	!	!	!LO:HP:a
8Re/	.	8D/	.	4D/)	.	.	4c\)	.	4f#X/)	4a\)	.	.	8r	.	8r	.	8r	.	4a/	4f#X\	.	4D/)	.	4dd/	4dd\	.	.	.	4ff#X\)	.	4aa\)	>
8r	.	8r	.	.	.	.	.	.	.	.	.	.	8c\	.	8f#X/	.	8a/	.	.	.	.	.	.	.	.	.	.	.	.	.	.	.
!LO:SIC:s=4GG\	!	!	!	!	!	!	!	!	!	!	!	!	!	!	!	!	!	!	!	!	!	!	!	!	!	!	!	!	!	!	!	!
4Re\	.	4G\	.	4G\	.	.	4B\	.	4g/	4g/	-ście	]	4B/	.	4g/	.	4g/	.	4g/	4g\	.	4G\	.	4dd 4g/	4ryy	4b/	4g\	.	4gg\	.	4gg\	.
!	!	!	!LO:DY:rj:a	!	!	!	!	!	!	!	!	!	!	!LO:DY:rj:a	!	!LO:DY:rj:a	!	!LO:DY:rj:a	!	!	!	!	!LO:DY:rj:a	!	!	!	!	!LO:DY:rj:a	!	!	!	!
4r	.	[4G\	p	[4G\	.	.	[4G/	.	[4g/	[4g/	Przed	mf	[4G/	p	[4g/	p	[4g/	p	4r	4ryy	.	[4G\	p	4r	4ryy	[4g/	[4g\	p	4r	.	4r	]
*	*	*	*	*	*	*	*	*	*	*	*	*	*	*	*	*	*	*	*	*	*	*	*	*v	*v	*	*	*	*	*	*	*
*	*	*	*	*	*	*	*	*	*	*	*	*	*	*	*	*	*	*	*v	*v	*	*	*	*	*v	*v	*	*	*	*	*
!!LO:PB:g=original
=11	=11	=11	=11	=11	=11	=11	=11	=11	=11	=11	=11	=11	=11	=11	=11	=11	=11	=11	=11	=11	=11	=11	=11	=11	=11	=11	=11	=11	=11
!	!	!	!	!LO:TX:a:t=P:problem:brak zakończenia ligatury	!	!	!LO:TX:a:t=P:problem:brak zakończenia ligatury	!	!LO:TX:a:t=P:problem:brak zakończenia ligatury	!LO:TX:a:t=P:problem:brak zakończenia ligatury	!	!	!	!	!	!	!	!	!	!	!	!	!	!	!	!	!	!LO:TX:t=P:problem:brak nut w taktach nr 11-23	!
1ryy	.	1ryy	.	4G\]	.	.	4G/]	.	4g/]	4g/]	.	.	1ryy	.	1ryy	.	1ryy	.	1ryy	.	1ryy	.	1ryy	1ryy	.	1ryy	.	1ryy	.
.	.	.	.	(8A\L	.	.	(8A/L	.	(8a/L	(8a/L	nim	.	.	.	.	.	.	.	.	.	.	.	.	.	.	.	.	.	.
.	.	.	.	8B\J)	.	.	8B/J)	.	8b/J)	8b/J)	.	.	.	.	.	.	.	.	.	.	.	.	.	.	.	.	.	.	.
.	.	.	.	4c\	.	.	4c/	.	4cc/	4cc/	Ko-	.	.	.	.	.	.	.	.	.	.	.	.	.	.	.	.	.	.
.	.	.	.	(8B\L	.	.	(8B/L	.	(8b/L	(8b/L	-ło	.	.	.	.	.	.	.	.	.	.	.	.	.	.	.	.	.	.
.	.	.	.	8A\J)	.	.	8A/J)	.	8a/J)	8a/J)	.	.	.	.	.	.	.	.	.	.	.	.	.	.	.	.	.	.	.
=12	=12	=12	=12	=12	=12	=12	=12	=12	=12	=12	=12	=12	=12	=12	=12	=12	=12	=12	=12	=12	=12	=12	=12	=12	=12	=12	=12	=12	=12
1ryy	.	1ryy	.	4.G\	.	.	4.G/	.	4.g/	4.g/	czas	.	1ryy	.	1ryy	.	1ryy	.	1ryy	.	1ryy	.	1ryy	1ryy	.	1ryy	.	1ryy	.
.	.	.	.	8F\	.	.	8F/	.	8f/	8f/	za-	.	.	.	.	.	.	.	.	.	.	.	.	.	.	.	.	.	.
.	.	.	.	4E\	.	.	4E/	.	4e/	4e/	-trzy-	.	.	.	.	.	.	.	.	.	.	.	.	.	.	.	.	.	.
.	.	.	.	4D\	.	.	4D/	.	4d/	4d/	-ma	.	.	.	.	.	.	.	.	.	.	.	.	.	.	.	.	.	.
=13	=13	=13	=13	=13	=13	=13	=13	=13	=13	=13	=13	=13	=13	=13	=13	=13	=13	=13	=13	=13	=13	=13	=13	=13	=13	=13	=13	=13	=13
1ryy	.	1ryy	.	4C/	.	.	4G/	.	4c/	4e/	Pa-	.	1ryy	.	1ryy	.	1ryy	.	1ryy	.	1ryy	.	1ryy	1ryy	.	1ryy	.	1ryy	.
.	.	.	.	8.BB/	.	.	8.G/	.	8.d/	8.g/	-dną	<	.	.	.	.	.	.	.	.	.	.	.	.	.	.	.	.	.
.	.	.	.	16BB/	.	.	16G/	.	16d/	16g/	te	.	.	.	.	.	.	.	.	.	.	.	.	.	.	.	.	.	.
.	.	.	.	4AA/	.	.	4A/	.	4e/	4cc\	świa-	.	.	.	.	.	.	.	.	.	.	.	.	.	.	.	.	.	.
.	.	.	.	8.GG/	.	.	8.B\	.	8.g/	8.dd\	-ty	.	.	.	.	.	.	.	.	.	.	.	.	.	.	.	.	.	.
.	.	.	.	16G\	.	.	16B\	.	16g/	16dd\	i	[[	.	.	.	.	.	.	.	.	.	.	.	.	.	.	.	.	.
=14	=14	=14	=14	=14	=14	=14	=14	=14	=14	=14	=14	=14	=14	=14	=14	=14	=14	=14	=14	=14	=14	=14	=14	=14	=14	=14	=14	=14	=14
!	!	!	!	!	!	!	!	!	!	!	!	!LO:DY:rj	!	!	!	!	!	!	!	!	!	!	!	!	!	!	!	!	!
1ryy	.	1ryy	.	(4.C\	.	.	2c\	.	2g/	2ee\	słoń-	f	1ryy	.	1ryy	.	1ryy	.	1ryy	.	1ryy	.	1ryy	1ryy	.	1ryy	.	1ryy	.
.	.	.	.	8E\)	.	.	.	.	.	.	.	.	.	.	.	.	.	.	.	.	.	.	.	.	.	.	.	.	.
.	.	.	.	4G\	.	.	4B\	.	4g/	4dd\	-ca	.	.	.	.	.	.	.	.	.	.	.	.	.	.	.	.	.	.
.	.	.	.	8.G\	.	.	8.B\	.	8.g/	8.dd\	Je-	.	.	.	.	.	.	.	.	.	.	.	.	.	.	.	.	.	.
.	.	.	.	16G\	.	.	16A#X\	.	16g/	16cc#X\	-mu	.	.	.	.	.	.	.	.	.	.	.	.	.	.	.	.	.	.
=15	=15	=15	=15	=15	=15	=15	=15	=15	=15	=15	=15	=15	=15	=15	=15	=15	=15	=15	=15	=15	=15	=15	=15	=15	=15	=15	=15	=15	=15
1ryy	.	1ryy	.	2G\	.	.	2B\	.	2g/	2dd\	tyl-	.	1ryy	.	1ryy	.	1ryy	.	1ryy	.	1ryy	.	1ryy	1ryy	.	1ryy	.	1ryy	.
.	.	.	.	4G\	.	.	4d\	.	4g/	4b\	-ko	.	.	.	.	.	.	.	.	.	.	.	.	.	.	.	.	.	.
.	.	.	.	8.A\	.	.	8.c\	.	8.e/	8.cc\	gra-	.	.	.	.	.	.	.	.	.	.	.	.	.	.	.	.	.	.
.	.	.	.	16F#X\	.	.	16A\	.	16a/	16dd\	-nic	.	.	.	.	.	.	.	.	.	.	.	.	.	.	.	.	.	.
!!LO:PB:g=original
=16	=16	=16	=16	=16	=16	=16	=16	=16	=16	=16	=16	=16	=16	=16	=16	=16	=16	=16	=16	=16	=16	=16	=16	=16	=16	=16	=16	=16	=16
1ryy	.	1ryy	.	2G\	nie	.	2d\	.	2g/	2b\	nie	.	1ryy	.	1ryy	.	1ryy	.	1ryy	.	1ryy	.	1ryy	1ryy	.	1ryy	.	1ryy	.
.	.	.	.	2D\	ma	.	2d\	.	2f#X/	2a\	ma	.	.	.	.	.	.	.	.	.	.	.	.	.	.	.	.	.	.
=17	=17	=17	=17	=17	=17	=17	=17	=17	=17	=17	=17	=17	=17	=17	=17	=17	=17	=17	=17	=17	=17	=17	=17	=17	=17	=17	=17	=17	=17
1ryy	.	1ryy	.	4E\	Je-	.	4B\	.	4e/	4g/	Je-	.	1ryy	.	1ryy	.	1ryy	.	1ryy	.	1ryy	.	1ryy	1ryy	.	1ryy	.	1ryy	.
.	.	.	.	8.D\	-go	.	8.d\	.	8.f#X/	8.a/	-go	<	.	.	.	.	.	.	.	.	.	.	.	.	.	.	.	.	.
.	.	.	.	16D\	iest	.	16d\	.	16f#/	16a/	iest	.	.	.	.	.	.	.	.	.	.	.	.	.	.	.	.	.	.
.	.	.	.	4G\	wie-	.	4d\	.	4g/	4b\	wie-	.	.	.	.	.	.	.	.	.	.	.	.	.	.	.	.	.	.
.	.	.	.	8.BB/	-czność	.	8.d\	.	8.g/	8.dd\	-czność	.	.	.	.	.	.	.	.	.	.	.	.	.	.	.	.	.	.
.	.	.	.	16BB/	bez	.	16d\	.	16g/	16dd\	bez	[[	.	.	.	.	.	.	.	.	.	.	.	.	.	.	.	.	.
=18	=18	=18	=18	=18	=18	=18	=18	=18	=18	=18	=18	=18	=18	=18	=18	=18	=18	=18	=18	=18	=18	=18	=18	=18	=18	=18	=18	=18	=18
!	!	!	!	!	!	!	!	!	!	!	!	!LO:DY:rj	!	!	!	!	!	!	!	!	!	!	!	!	!	!	!	!	!
1ryy	.	1ryy	.	(4AA/	koń-	.	(4e\	.	(4a/	(4cc\	koń-	f	1ryy	.	1ryy	.	1ryy	.	1ryy	.	1ryy	.	1ryy	1ryy	.	1ryy	.	1ryy	.
.	.	.	.	4D/)	.	.	4c\)	.	4f#X/)	4a\)	.	.	.	.	.	.	.	.	.	.	.	.	.	.	.	.	.	.	.
.	.	.	.	4G\	-ca	.	4B\	.	4g/	4g/	-ca	.	.	.	.	.	.	.	.	.	.	.	.	.	.	.	.	.	.
!	!	!	!	!	!	!	!	!	!	!	!	!LO:DY:rj	!	!	!	!	!	!	!	!	!	!	!	!	!	!	!	!	!
.	.	.	.	[4G\	Je-	.	[4G/	.	[4g/	[4g/	Je-	p	.	.	.	.	.	.	.	.	.	.	.	.	.	.	.	.	.
=19	=19	=19	=19	=19	=19	=19	=19	=19	=19	=19	=19	=19	=19	=19	=19	=19	=19	=19	=19	=19	=19	=19	=19	=19	=19	=19	=19	=19	=19
1ryy	.	1ryy	.	4G\]	.	.	4G/]	.	4g/]	4g/]	.	.	1ryy	.	1ryy	.	1ryy	.	1ryy	.	1ryy	.	1ryy	1ryy	.	1ryy	.	1ryy	.
.	.	.	.	(8A\L	-mu	.	(8A/L	.	(8a/L	(8a/L	-mu	.	.	.	.	.	.	.	.	.	.	.	.	.	.	.	.	.	.
.	.	.	.	8B\J)	.	.	8B/J)	.	8b/J)	8b/J)	.	.	.	.	.	.	.	.	.	.	.	.	.	.	.	.	.	.	.
!	!	!	!	!	!	!	!	!	!	!LO:TX:b:t=2.	!	!	!	!	!	!	!	!	!	!	!	!	!	!	!	!	!	!	!
.	.	.	.	4c\	słoń-	.	4c\	.	4cc/	4cc/	w_hoł-	.	.	.	.	.	.	.	.	.	.	.	.	.	.	.	.	.	.
.	.	.	.	(8B\L	-ce	.	(8B\L	.	(8b/L	(8b/L	-dzie	.	.	.	.	.	.	.	.	.	.	.	.	.	.	.	.	.	.
.	.	.	.	8A\J)	.	.	8A\J)	.	8a/J)	8a/J)	.	.	.	.	.	.	.	.	.	.	.	.	.	.	.	.	.	.	.
=20	=20	=20	=20	=20	=20	=20	=20	=20	=20	=20	=20	=20	=20	=20	=20	=20	=20	=20	=20	=20	=20	=20	=20	=20	=20	=20	=20	=20	=20
!	!	!	!	!	!	!	!	!	!	!LO:TX:b:t=1.	!	!	!	!	!	!	!	!	!	!	!	!	!	!	!	!	!	!	!
1ryy	.	1ryy	.	4.G\	w_hoł-	.	4.G/	.	4.g/	4.g/	słoń-	.	1ryy	.	1ryy	.	1ryy	.	1ryy	.	1ryy	.	1ryy	1ryy	.	1ryy	.	1ryy	.
.	.	.	.	8F\	-dzie	.	8F/	.	8f/	8f/	-ce	.	.	.	.	.	.	.	.	.	.	.	.	.	.	.	.	.	.
.	.	.	.	4E\	świe-	.	4E/	.	4e/	4e/	świe-	.	.	.	.	.	.	.	.	.	.	.	.	.	.	.	.	.	.
.	.	.	.	4D\	-ci	.	4D/	.	4d/	4d/	-ci	.	.	.	.	.	.	.	.	.	.	.	.	.	.	.	.	.	.
!!LO:PB:g=original
=21	=21	=21	=21	=21	=21	=21	=21	=21	=21	=21	=21	=21	=21	=21	=21	=21	=21	=21	=21	=21	=21	=21	=21	=21	=21	=21	=21	=21	=21
1ryy	.	1ryy	.	4C/	Wia-	.	4G/	.	4c/	4e/	Wia-	.	1ryy	.	1ryy	.	1ryy	.	1ryy	.	1ryy	.	1ryy	1ryy	.	1ryy	.	1ryy	.
.	.	.	.	8.BB/	-try	.	8.G/	.	8.d/	8.g/	-try	.	.	.	.	.	.	.	.	.	.	.	.	.	.	.	.	.	.
.	.	.	.	16BB/	wy-	.	16G/	.	16d/	16g/	wy-	<	.	.	.	.	.	.	.	.	.	.	.	.	.	.	.	.	.
.	.	.	.	4AA/	-ro-	.	4A\	.	4e/	4cc\	-ro-	.	.	.	.	.	.	.	.	.	.	.	.	.	.	.	.	.	.
.	.	.	.	8.GG/	-ki	.	8.B\	.	8.g/	8.dd\	-ki	.	.	.	.	.	.	.	.	.	.	.	.	.	.	.	.	.	.
.	.	.	.	16G\	ro-	.	16B\	.	16g/	16dd\	ro-	[[	.	.	.	.	.	.	.	.	.	.	.	.	.	.	.	.	.
=22	=22	=22	=22	=22	=22	=22	=22	=22	=22	=22	=22	=22	=22	=22	=22	=22	=22	=22	=22	=22	=22	=22	=22	=22	=22	=22	=22	=22	=22
!	!	!	!	!	!	!	!	!	!	!	!	!LO:DY:rj	!	!	!	!	!	!	!	!	!	!	!	!	!	!	!	!	!
1ryy	.	1ryy	.	(4.C\	-zno-	.	2c\	.	2g/	2ee\	-zno-	f >	1ryy	.	1ryy	.	1ryy	.	1ryy	.	1ryy	.	1ryy	1ryy	.	1ryy	.	1ryy	.
.	.	.	.	8E\)	.	.	.	.	.	.	.	.	.	.	.	.	.	.	.	.	.	.	.	.	.	.	.	.	.
.	.	.	.	4G\	-szą,	.	4B\	.	4g/	4dd\	-szą,	]	.	.	.	.	.	.	.	.	.	.	.	.	.	.	.	.	.
.	.	.	.	8.G\	lu-	.	8.B\	.	8.g/	8.dd\	lu-	.	.	.	.	.	.	.	.	.	.	.	.	.	.	.	.	.	.
.	.	.	.	16G\	-dy	.	16A#X\	.	16g/	16cc#X\	-dy	.	.	.	.	.	.	.	.	.	.	.	.	.	.	.	.	.	.
=23	=23	=23	=23	=23	=23	=23	=23	=23	=23	=23	=23	=23	=23	=23	=23	=23	=23	=23	=23	=23	=23	=23	=23	=23	=23	=23	=23	=23	=23
1ryy	.	1ryy	.	2G\	ziem-	.	2B\	.	2g/	2dd\	ziem-	.	1ryy	.	1ryy	.	1ryy	.	1ryy	.	1ryy	.	1ryy	1ryy	.	1ryy	.	1ryy	.
.	.	.	.	4G\	-skie	.	4d\	.	4g/	4b\	-skie	.	.	.	.	.	.	.	.	.	.	.	.	.	.	.	.	.	.
.	.	.	.	8.A\	Je-	.	8.c\	.	8.e/	8.cc\	Je-	.	.	.	.	.	.	.	.	.	.	.	.	.	.	.	.	.	.
.	.	.	.	16F#X\	-go	.	16A\	.	16a/	16dd\	-go	.	.	.	.	.	.	.	.	.	.	.	.	.	.	.	.	.	.
=24	=24	=24	=24	=24	=24	=24	=24	=24	=24	=24	=24	=24	=24	=24	=24	=24	=24	=24	=24	=24	=24	=24	=24	=24	=24	=24	=24	=24	=24
*	*	*	*	*	*	*	*	*	*	*	*	*	*	*	*	*	*	*	*^	*	*	*	*	*^	*	*	*	*	*
*2\right	*	*	*	*	*	*	*	*	*	*	*	*	*	*	*	*	*	*	*	*	*	*	*	*	*	*	*	*	*	*	*
!LO:TX:t=P:problem:diminuendolike accent	!	!	!	!	!	!	!	!	!	!	!	!	!	!	!	!	!	!	!	!	!	!	!	!	!	!	!	!	!	!	!
!LO:SIC:s=2GGT^<\	!	!	!	!	!	!	!	!	!	!	!	!	!	!	!	!	!	!	!	!	!	!	!	!	!	!	!	!	!	!	!
2Ret^<\	.	(4G\	.	(4G\	dzie-	.	2d\	.	2g/	2b\	dzie-	.	(4g\	.	8r	.	8r	.	2b/	4g\	.	(4G\	.	(2dd 2g/	(2b/	2g\	.	[2gg\	.	(2bb\	.
.	.	.	.	.	.	.	.	.	.	.	.	.	.	.	8g/L	.	8bL 8d/	.	.	.	.	.	.	.	.	.	.	.	.	.	.
.	.	4Fn\)	.	4Fn\)	.	.	.	.	.	.	.	.	4fn\)	.	8g/	.	8b 8d/	.	.	4fn\	.	4Fn\)	.	.	.	.	.	.	.	.	.
.	.	.	.	.	.	.	.	.	.	.	.	.	.	.	8g/J	.	8bJ 8d/	.	.	.	.	.	.	.	.	.	.	.	.	.	.
!LO:SIC:s=8C/	!	!	!	!	!	!	!	!	!	!	!	!	!	!	!	!	!	!	!	!	!	!	!	!	!	!	!	!	!	!	!
8Re/	.	8E\	.	8E\	-ci.	.	8c\	.	8g/	8cc\	-ći	.	8e\	.	(<16g/LL	.	(<16ccLL 16e/	.	8cc/	8e\	.	8E\	.	8ee 8g/)	16cc/LL)	8g\	.	8gg\]	.	16ccc\LL)	.
.	.	.	.	.	.	.	.	.	.	.	.	.	.	.	16f#X/	.	16f#X/	.	.	.	.	.	.	.	(16f#X/	.	.	.	.	(16ff#X\	.
8r	.	8r	.	8r	.	.	8r	.	8r	8r	.	.	8r	.	16g/	.	16g/	.	8r	8ryy	.	8r	.	8r	16g/	8r	.	8r	.	16gg\	.
.	.	.	.	.	.	.	.	.	.	.	.	.	.	.	16a/JJ	.	16a/JJ	.	.	.	.	.	.	.	16a/JJ	.	.	.	.	16aa\JJ	.
!	!	!	!	!	!	!	!	!	!	!	!	!	!	!	!LO:TX:t=P:problem:łuk od góry	!	!LO:TX:t=P:problem:łuk od góry	!	!	!	!	!	!	!	!	!	!	!	!	!	!
4r	.	4r	.	4r	.	.	4r	.	4r	4r	.	.	4r	.	16b\LL	.	16b\LL	.	4r	4ryy	.	4r	.	4r	16b/LL	4r	.	4r	.	16bb\LL	.
.	.	.	.	.	.	.	.	.	.	.	.	.	.	.	16cc\	.	16cc\	.	.	.	.	.	.	.	16cc/	.	.	.	.	16ccc\	.
.	.	.	.	.	.	.	.	.	.	.	.	.	.	.	16dd\	.	16dd\	.	.	.	.	.	.	.	16dd/	.	.	.	.	16ddd\	.
.	.	.	.	.	.	.	.	.	.	.	.	.	.	.	16ee\JJ)	.	16ee\JJ)	.	.	.	.	.	.	.	16ee/JJ)	.	.	.	.	16eee\JJ	.
!!LO:PB:g=original
=25	=25	=25	=25	=25	=25	=25	=25	=25	=25	=25	=25	=25	=25	=25	=25	=25	=25	=25	=25	=25	=25	=25	=25	=25	=25	=25	=25	=25	=25	=25	=25
*	*	*	*	*	*	*	*	*	*	*	*	*	*	*	*	*	*	*	*	*	*	*	*	*^	*	*	*	*	*	*	*
!	!	!	!	!	!	!	!	!	!	!	!	!	!	!	!	!	!	!	!LO:TX:a:t=Trombe	!	!	!LO:TX:a:t=Fagotti	!	!	!	!	!	!	!	!	!LO:TX:a:t=P:problem:brak zakończenia łuku	!
1r	.	4D\	.	4D\	Cno-	.	4d\	.	4f/	4ff\	Cno-	.	4a 4d\	.	4dd 4f\	.	4ff\	.	4dd/	4dd\	.	4d 4D\	.	4ff 4dd\	2.ryy	[4ff/	[>4a\	.	[4ff\	.	[4fff\)	.
.	.	8.D\L	.	8.D\	-tą	.	8.d\	.	8.f/	8.ff\	-tą	.	8.aL 8.d\	.	8.ddL 8.f\	.	8.ffL 8.a 8.d\	<	8.dd/L	8.dd\L	.	8.dL 8.D\	.	8.ffL 8.dd\	.	8.ff/L]	8.a\L]	.	8.ff\L]	.	8.fff\L]	.
.	.	.	.	.	.	.	.	.	.	.	.	<	.	.	.	.	.	.	.	.	.	.	.	.	.	.	.	.	.	.	.	.
.	.	16D\Jk	.	16D\	ku	.	16d\	.	16f/	16ff\	ku	.	16aJk 16d\	.	16ddJk 16f\	.	16ff\Jk	.	16dd/Jk	16dd\Jk	.	16dJk 16D\	.	16ffJk 16dd\	.	16ff/Jk	16a\Jk	.	16ff|\Jk	.	16fff\Jk	.
.	.	4E\	.	4E\	nie-	.	4c#X\	.	4g/	4ee\	nie-	.	4a 4e\	.	4cc#X 4g\	.	4ee\	.	4ee/	4cc#X\	.	4c#X 4E\	.	4ee 4cc#X\	.	4ee/	4a\	.	4gg\	.	4eee\	.
.	.	8.F\L	.	8.F\	-mu	.	8.d\	.	8.a/	8.dd\	-mu	.	4a 4f\	.	4dd 4f\	.	4dd\	[[	4dd/	4dd\	.	4d 4F\	.	4ff 4dd/	4dd\	4dd/	4a\	.	4aa\	.	4ddd\	.
.	.	16F\Jk	.	16F\	się	.	16d\	.	16a/	16dd\	się	[[	.	.	.	.	.	.	.	.	.	.	.	.	.	.	.	.	.	.	.	.
=26	=26	=26	=26	=26	=26	=26	=26	=26	=26	=26	=26	=26	=26	=26	=26	=26	=26	=26	=26	=26	=26	=26	=26	=26	=26	=26	=26	=26	=26	=26	=26	=26
*	*	*	*	*	*	*	*	*	*	*	*	*	*	*	*	*	*	*	*	*	*	*^	*	*	*	*	*	*	*	*	*	*
*	*	*	*	*	*	*	*	*	*	*	*	*	*	*	*2\right	*	*2\right	*	*	*	*	*	*	*	*	*	*	*	*	*	*	*	*
*tremolo	*	*tremolo	*	*	*	*	*	*	*	*	*	*	*tremolo	*	*tremolo	*	*tremolo	*	*	*	*	*	*	*	*	*	*	*	*	*	*	*	*
!LO:SIC:s=16GGLL	!	!	!LO:DY:rj:a	!	!	!	!	!	!	!	!	!LO:DY:rj	!	!	!	!	!	!LO:DY:rj	!	!	!	!	!	!	!	!	!	!	!	!	!	!	!LO:DY:rj:a
16ReLL	.	8G\L	f	1G	wzno-	.	(2e\	.	(2g/	(2gg\	wzno-	f	16g\LL	.	16ee 16g\LL	.	16gg\LL	f	2gg\	2g\	.	2e/	2G\	.	2ee/	2cc\	2ee/	2g\	.	2gg\	.	(2ggg\	f
!LO:SIC:s=16GG	!	!	!	!	!	!	!	!	!	!	!	!	!	!	!	!	!	!	!	!	!	!	!	!	!	!	!	!	!	!	!	!	!
16Re	.	.	.	.	.	.	.	.	.	.	.	.	16g\	.	16ee 16g\	.	16gg\	.	.	.	.	.	.	.	.	.	.	.	.	.	.	.	.
!LO:SIC:s=16GG	!	!	!	!	!	!	!	!	!	!	!	!	!	!	!	!	!	!	!	!	!	!	!	!	!	!	!	!	!	!	!	!	!
16Re	.	8G\	.	.	.	.	.	.	.	.	.	.	16g\	.	16ee 16g\	.	16gg\	.	.	.	.	.	.	.	.	.	.	.	.	.	.	.	.
!LO:SIC:s=16GG	!	!	!	!	!	!	!	!	!	!	!	!	!	!	!	!	!	!	!	!	!	!	!	!	!	!	!	!	!	!	!	!	!
16Re	.	.	.	.	.	.	.	.	.	.	.	.	16g\	.	16ee 16g\	.	16gg\	.	.	.	.	.	.	.	.	.	.	.	.	.	.	.	.
!LO:SIC:s=16GG	!	!	!	!	!	!	!	!	!	!	!	!	!	!	!	!	!	!	!	!	!	!	!	!	!	!	!	!	!	!	!	!	!
16Re	.	8G\	.	.	.	.	.	.	.	.	.	.	16g\	.	16ee 16g\	.	16gg\	.	.	.	.	.	.	.	.	.	.	.	.	.	.	.	.
!LO:SIC:s=16GG	!	!	!	!	!	!	!	!	!	!	!	!	!	!	!	!	!	!	!	!	!	!	!	!	!	!	!	!	!	!	!	!	!
16Re	.	.	.	.	.	.	.	.	.	.	.	.	16g\	.	16ee 16g\	.	16gg\	.	.	.	.	.	.	.	.	.	.	.	.	.	.	.	.
!LO:SIC:s=16GG	!	!	!	!	!	!	!	!	!	!	!	!	!	!	!	!	!	!	!	!	!	!	!	!	!	!	!	!	!	!	!	!	!
16Re	.	8G\J	.	.	.	.	.	.	.	.	.	.	16g\	.	16ee 16g\	.	16gg\	.	.	.	.	.	.	.	.	.	.	.	.	.	.	.	.
!LO:SIC:s=16GG	!	!	!	!	!	!	!	!	!	!	!	!	!	!	!	!	!	!	!	!	!	!	!	!	!	!	!	!	!	!	!	!	!
16Re	.	.	.	.	.	.	.	.	.	.	.	.	16g\JJ	.	16ee 16g\JJ	.	16gg\JJ	.	.	.	.	.	.	.	.	.	.	.	.	.	.	.	.
!LO:SIC:s=16GG	!	!	!	!	!	!	!	!	!	!	!	!	!	!	!	!	!	!	!	!	!	!	!	!	!	!	!	!	!	!	!	!	!
16Re	.	8GG/L	.	.	.	.	4f\	.	4a/	4ff\	.	.	16G/LL	.	16ff 16a\LL	.	16ff\LL	.	4ff\	4a\	.	4f/	2GG/	.	4r	2ryy	4ff/	4a\	.	4aa\	.	4fff\	.
!LO:SIC:s=16GG	!	!	!	!	!	!	!	!	!	!	!	!	!	!	!	!	!	!	!	!	!	!	!	!	!	!	!	!	!	!	!	!	!
16Re	.	.	.	.	.	.	.	.	.	.	.	.	16G/	.	16ff 16a\	.	16ff\	.	.	.	.	.	.	.	.	.	.	.	.	.	.	.	.
!LO:SIC:s=16GG	!	!	!	!	!	!	!	!	!	!	!	!	!	!	!	!	!	!	!	!	!	!	!	!	!	!	!	!	!	!	!	!	!
16Re	.	8GG/	.	.	.	.	.	.	.	.	.	.	16G/	.	16ff 16a\	.	16ff\	.	.	.	.	.	.	.	.	.	.	.	.	.	.	.	.
!LO:SIC:s=16GG	!	!	!	!	!	!	!	!	!	!	!	!	!	!	!	!	!	!	!	!	!	!	!	!	!	!	!	!	!	!	!	!	!
16Re	.	.	.	.	.	.	.	.	.	.	.	.	16G/JJ	.	16ff 16a\JJ	.	16ff\JJ	.	.	.	.	.	.	.	.	.	.	.	.	.	.	.	.
!LO:SIC:s=16GG	!	!	!	!	!	!	!	!	!	!	!	!	!	!	!	!	!	!	!	!	!	!	!	!	!	!	!	!	!	!	!	!	!
16Re	.	8GG/	.	.	.	.	4d\)	.	4f/)	4b\)	.	.	16d 16G/LL	.	16f 16G/LL	.	16b\LL	.	4b/	4g\	.	4B/	.	.	4dd 4g/	.	4dd/	4f\	.	4ff\	.	4bb\)	.
!LO:SIC:s=16GG	!	!	!	!	!	!	!	!	!	!	!	!	!	!	!	!	!	!	!	!	!	!	!	!	!	!	!	!	!	!	!	!	!
16Re	.	.	.	.	.	.	.	.	.	.	.	.	16d 16G/	.	16f 16G/	.	16b\	.	.	.	.	.	.	.	.	.	.	.	.	.	.	.	.
!LO:SIC:s=16GG	!	!	!	!	!	!	!	!	!	!	!	!	!	!	!	!	!	!	!	!	!	!	!	!	!	!	!	!	!	!	!	!	!
16Re	.	8GG/J	.	.	.	.	.	.	.	.	.	.	16d 16G/	.	16f 16G/	.	16b\	.	.	.	.	.	.	.	.	.	.	.	.	.	.	.	.
!LO:SIC:s=16GGJJ	!	!	!	!	!	!	!	!	!	!	!	!	!	!	!	!	!	!	!	!	!	!	!	!	!	!	!	!	!	!	!	!	!
16ReJJ	.	.	.	.	.	.	.	.	.	.	.	.	16d 16G/JJ	.	16f 16G/JJ	.	16b\JJ	.	.	.	.	.	.	.	.	.	.	.	.	.	.	.	.
*Xtremolo	*	*Xtremolo	*	*	*	*	*	*	*	*	*	*	*Xtremolo	*	*Xtremolo	*	*Xtremolo	*	*	*	*	*	*	*	*	*	*	*	*	*	*	*	*
*	*	*	*	*	*	*	*	*	*	*	*	*	*	*	*	*	*	*	*v	*v	*	*	*	*	*v	*v	*	*	*	*	*	*	*
=27	=27	=27	=27	=27	=27	=27	=27	=27	=27	=27	=27	=27	=27	=27	=27	=27	=27	=27	=27	=27	=27	=27	=27	=27	=27	=27	=27	=27	=27	=27	=27
*	*	*^	*	*	*	*	*	*	*	*	*	*	*	*	*	*	*	*	*	*	*	*	*	*	*	*	*	*	*	*	*
!LO:SIC:s=4C/	!	!	!	!	!	!	!	!	!	!	!	!	!	!	!	!	!	!	!	!	!	!	!	!	!	!	!	!	!	!	!	!
4Re/	.	4C/	4ryy	.	4C/	-szą.	.	4c\	.	4e/	4cc\	-szą.	.	4c\	.	4e 4G/	.	4cc\	.	4cc 4e/	.	4c/	4C\	.	4cc 4e/	4cc 4e/	4ryy	.	4ee\	.	4ccc\	.
!	!	!	!	!LO:DY:rj	!	!	!	!	!	!	!	!	!	!	!	!	!	!	!	!	!	!	!	!LO:DY:rj	!	!	!	!LO:DY:rj	!	!LO:DY:rj:a	!	!LO:DY:rj:a
4r	.	(4c/	[2.C\	pp	4r	.	.	4r	.	4r	4r	.	.	4r	.	4r	.	4r	.	4r	.	(4c/	[2.C\	p	4r	4cc/	2g\	p	(4ee\	p	(4ccc\	p
2r	.	4B/	.	.	2r	.	.	2r	.	2r	2r	.	.	2r	.	2r	.	2r	.	2r	.	4B/	.	.	2r	4dd/	.	.	4gg\	.	4ddd\	.
.	.	4A/	.	.	.	.	.	.	.	.	.	.	.	.	.	.	.	.	.	.	.	4A/	.	.	.	4ff/	4cc\	.	4ff\)	.	4fff\	.
=28	=28	=28	=28	=28	=28	=28	=28	=28	=28	=28	=28	=28	=28	=28	=28	=28	=28	=28	=28	=28	=28	=28	=28	=28	=28	=28	=28	=28	=28	=28	=28	=28
1r	.	2G/	1C]	.	1r	.	.	1r	.	1r	1r	.	.	1r	.	1r	.	1r	.	4r	p	2G/)	1C]	.	1r	([2ee/	2g\	.	(2gg\	.	[2eee\)	.
.	.	.	.	.	.	.	.	.	.	.	.	.	.	.	.	.	.	.	.	(4g/	.	.	.	.	.	.	.	.	.	.	.	.
.	.	4F#X/	.	.	.	.	.	.	.	.	.	.	.	.	.	.	.	.	.	4f#X/	.	4F#X/	.	.	.	8ee/L]	4a\	.	4.aa\	.	8eee\L]	.
.	.	.	.	.	.	.	.	.	.	.	.	.	.	.	.	.	.	.	.	.	.	.	.	.	.	8dd/	.	.	.	.	8ddd\	.
.	.	4Fn/	.	.	.	.	.	.	.	.	.	.	.	.	.	.	.	.	.	4fn/	.	4Fn/	.	.	.	8a/	8a\L	.	.	.	8aa\	.
.	.	.	.	.	.	.	.	.	.	.	.	.	.	.	.	.	.	.	.	.	.	.	.	.	.	8b/J)	8g\J	.	8gg\)	.	8bb\J	.
=29	=29	=29	=29	=29	=29	=29	=29	=29	=29	=29	=29	=29	=29	=29	=29	=29	=29	=29	=29	=29	=29	=29	=29	=29	=29	=29	=29	=29	=29	=29	=29	=29
*	*	*	*	*	*	*	*	*	*	*	*	*	*	*	*	*	*	*	*	*	*	*	*	*	*^	*	*	*	*	*	*	*
2r	.	4E/	4C\	.	1r	.	.	1r	.	1r	1r	.	.	2r	.	2r	.	2r	.	4e/	.	4E/	4C\	.	2.cc/	2.cc\	(4cc/	4g\	.	(4gg\	.	4ccc\	.
.	.	4ryy	4F#X\	.	.	.	.	.	.	.	.	.	.	.	.	.	.	.	.	2c/)	.	4F#X\	4FF#X\	.	.	.	4a 4e-X/	4ryy	.	4ee-X\	.	4aa\	.
4r	.	2ryy	4G\)	.	.	.	.	.	.	.	.	.	.	8r	.	8r	.	8r	.	.	.	2G\	2GG\	.	.	.	4g 4e-/	2ryy	.	4een\	.	(4gg\	.
.	.	.	.	.	.	.	.	.	.	.	.	.	.	(8ee\L	.	(8ee\L	.	(8gg\L	.	.	.	.	.	.	.	.	.	.	.	.	.	.	.
!LO:SIC:s=4GGT\	!	!	!	!	!	!	!	!	!	!	!	!	!	!	!	!	!	!	!	!	!	!	!	!	!	!	!	!	!	!	!	!	!
4Ret\	.	.	4GG/	.	.	.	.	.	.	.	.	.	.	8dd#X\	.	8ff#X\	.	8aa\	.	4r	.	.	.	.	4r	4ryy	8aL 8d#X/	.	.	8ff#X\L	.	8aa\L	.
.	.	.	.	.	.	.	.	.	.	.	.	.	.	8ddn\J)	.	8ffn\J)	.	8bb\J)	.	.	.	.	.	.	.	.	8bJ 8dn/	.	.	8ffn\J	.	8bb\J)	.
*	*	*v	*v	*	*	*	*	*	*	*	*	*	*	*	*	*	*	*	*	*	*	*	*	*	*	*	*	*	*	*	*	*	*
=30	=30	=30	=30	=30	=30	=30	=30	=30	=30	=30	=30	=30	=30	=30	=30	=30	=30	=30	=30	=30	=30	=30	=30	=30	=30	=30	=30	=30	=30	=30	=30	=30
*	*	*	*	*	*	*	*	*	*	*	*	*	*	*	*	*	*	*	*^	*	*	*	*	*	*	*	*	*	*	*	*	*
!LO:SIC:s=4C/	!	!	!	!	!	!	!	!	!	!	!	!	!	!	!	!	!	!	!	!	!	!	!	!	!	!	!	!	!	!	!	!	!
4Re/	.	4C/	f	1r	.	.	1r	.	1r	1r	.	.	4cc\	.	4ee\	.	4ccc\	.	4cc 4e/	2.ryy	.	4G\	4C\	.	4cc 4e/	2ryy	4cc 4e/)	2ryy	.	4ee\)	.	4ccc\	.
!	!	!	!	!	!	!	!	!	!	!	!	!	!	!	!	!	!	!	!	!	!	!	!	!	!	!	!	!	!	!	!	!	!LO:DY:a
4r	f	4r	.	.	.	.	.	.	.	.	.	.	4r	.	4r	f	4r	.	4r	.	.	4r	4ryy	.	4r	.	4r	.	.	4r	.	4r	f
!LO:SIC:s=4C/	!	!	!	!	!	!	!	!	!	!	!	!	!	!	!	!	!	!	!	!	!	!	!	!	!	!	!	!	!	!	!	!	!
4Re/	.	4c\	.	.	.	.	.	.	.	.	.	.	4e 4G 4C/	.	4ccc 4ee 4g\	.	4eee\	.	4ee 4cc\	.	.	4G 4C\	4ryy	.	4ee/	4cc\	4ee/	4cc\	.	4gg\	.	4eee\	.
8.r	.	8.r	.	.	.	.	.	.	.	.	.	.	8.r	.	8.r	.	8.r	.	8.r	8.ryy	.	8.r	8.ryy	.	8.r	4ryy	8.r	8.ryy	.	8.r	.	8.r	.
!LO:SIC:s=16C/	!	!	!	!	!	!	!	!	!	!	!	!	!	!	!	!	!	!	!	!	!	!	!	!	!	!	!	!	!	!	!	!	!
16Re/	.	16C/	.	.	.	.	.	.	.	.	.	.	16c 16C/	.	16c/	.	16c/	.	16c/	16c\	.	16C/	16C\	.	16cc 16c/	.	16c/	16c\	.	16cc\	.	16cc\	.
*	*	*	*	*	*	*	*	*	*	*	*	*	*	*	*	*	*	*	*	*	*	*	*	*	*v	*v	*	*	*	*	*	*	*
=31	=31	=31	=31	=31	=31	=31	=31	=31	=31	=31	=31	=31	=31	=31	=31	=31	=31	=31	=31	=31	=31	=31	=31	=31	=31	=31	=31	=31	=31	=31	=31	=31
!LO:SIC:s=2C/	!	!	!	!	!	!	!	!	!	!	!	!	!	!	!	!	!	!	!	!	!	!	!	!	!	!	!	!	!	!	!	!
2Re/	.	2C/	.	1r	.	.	1r	.	1r	1r	.	.	2c 2C/	.	2c/	.	2c/	.	2c/	2c\	.	2C/	2C\	.	2cc 2c/	2c/	2c\	.	2cc\	.	2cc\	.
2r	.	2r	.	.	.	.	.	.	.	.	.	.	2r	.	2r	.	2r	.	2r	2ryy	.	2r	2ryy	.	2r	2r	2ryy	.	2r	.	2r	.
*	*	*	*	*	*	*	*	*	*	*	*	*	*	*	*	*	*	*	*v	*v	*	*	*	*	*	*	*	*	*	*	*	*
*	*	*	*	*	*	*	*	*	*	*	*	*	*	*	*	*	*	*	*	*	*v	*v	*	*	*	*	*	*	*	*	*
*	*	*	*	*	*	*	*	*	*	*	*	*	*	*	*	*	*	*	*	*	*	*	*	*v	*v	*	*	*	*	*
==	==	==	==	==	==	==	==	==	==	==	==	==	==	==	==	==	==	==	==	==	==	==	==	==	==	==	==	==	==
*-	*-	*-	*-	*-	*-	*-	*-	*-	*-	*-	*-	*-	*-	*-	*-	*-	*-	*-	*-	*-	*-	*-	*-	*-	*-	*-	*-	*-	*-
!!!system-decoration: <(g1,s6)><({s7,s8}s9)>{g2}s14,s15
!!!RDF**kern: > = above
!!!RDF**kern: < = below
!!!RDF**kern: | = vertical stroke
!!!ENC: Andrzej Kubiczek
!!!END: 2021-04-27
!!!ENC: Andrzej Gręziak
!!!END: 2021-04-10
